X: 7216
T: Clach Na Cudain
R: strathspey
M: 4/4
K: Dmajor
D<D F>E D2 A,2|D<D F>A B>AB>d|D<D F>E D2 (3DEF|G>A,F>A, E>A, C<E|
D<D F>E D2 A,2|D<D F>E (3DFG (3ABc|(3dAG (3FGE (3DFA (3dAF|G>A,F>A, E>A, C<E||
d>fA>f d/e/f/g/ a>f|d>fA>f d>fA>f|d>fA>f d/e/f/g/ a>f|g>Af>A e>Ac>e|
dfAf d/e/f/g/ a>f|dfAf d>Ad>f|B<gA<f G<eF<d|G>A,F>A, E<A,C<E||

